static/images/mobile/copyright/wikipedia-wordmark-ceb.svg

<?xml version="1.0" encoding="UTF-8"?>
<svg width="119px" height="18px" viewBox="0 0 119 18" version="1.1" xmlns="http://www.w3.org/2000/svg" xmlns:xlink="http://www.w3.org/1999/xlink">
    <title>ceb-wordmark</title>
    <g id="Page-1" stroke="none" stroke-width="1" fill="none" fill-rule="evenodd">
        <path d="M18.1648645,0.000828060009 C18.2314829,0.000919904693 18.2971514,0.00101707965 18.3616658,0.00111835481 L18.7332697,0.00176536781 C18.792351,0.00187812356 18.8498699,0.0019925194 18.905622,0.00210732525 L19.2173017,0.00279124013 C19.2651705,0.00290276582 19.3108643,0.0030122414 19.3541788,0.00311843682 L19.6742572,0.00395241935 C19.7014587,0.0040278632 19.7256683,0.00409633669 19.746682,0.00415660976 L19.844,0.00444444444 L19.901,0.0574444444 L19.901,0.553444444 C19.901,0.690444444 19.824,0.758444444 19.672,0.758444444 C18.926,0.793444444 18.773,0.867444444 18.5,1.26044444 C18.351,1.47544444 18.057,1.93644444 17.752,2.45344444 L17.752,2.45344444 L15.134,7.34944444 C15.134,7.34944444 15.1084258,7.40287016 15.0609365,7.50188383 L18.26,14.0494444 L18.454,14.1024444 L23.494,2.14144444 C23.669,1.65944444 23.642,1.31744444 23.417,1.11644444 C23.191,0.920444444 23.032,0.804444444 22.448,0.780444444 L21.975,0.756444444 C21.917,0.756444444 21.862,0.735444444 21.809,0.696444444 C21.757,0.659444444 21.73,0.610444444 21.73,0.551444444 L21.73,0.0534444444 L21.802,0.00244444444 L27.496,0.00244444444 L27.496,0.00244444444 L27.554,0.0534444444 L27.554,0.551444444 C27.554,0.686444444 27.477,0.754444444 27.325,0.754444444 C26.579,0.787444444 26.026,0.949444444 25.668,1.23844444 C25.309,1.52944444 25.029,1.93044444 24.828,2.45144444 C24.828,2.45144444 20.193,13.0604444 18.607,16.5864444 C18,17.7424444 17.403,17.6364444 16.878,16.5534444 C16.4479796,15.6678118 15.7151462,14.0837847 14.9789897,12.4761337 L14.746758,11.9684561 C14.4812514,11.387467 14.2194396,10.8126885 13.9755242,10.2761178 L14.184,11.2524444 L14.157,11.5164444 C14.137,11.5804444 13.998,11.6414444 13.934,11.6214444 L13.934,11.6214444 L13.779,11.7194444 C13.714,11.6994444 13.506,11.4724444 13.526,11.4064444 L13.526,11.4064444 L13.7584127,10.2013319 C12.6958061,12.3914939 11.2910289,15.2560385 10.584,16.5674444 C9.876,17.7984444 9.293,17.6374444 8.829,16.5994444 C7.218,12.7984444 3.91,6.12444444 2.353,2.38444444 C2.065,1.69544444 1.848,1.25344444 1.643,1.07844444 C1.437,0.905444444 1.009,0.801444444 0.358,0.766444444 C0.119,0.740444444 0,0.682444444 0,0.588444444 L0,0.588444444 L0,0.0674444444 L0.058,0.0164444444 C0.0891764706,0.0162679739 0.123873702,0.0161018839 0.161857623,0.0159457166 L0.427328821,0.0151241208 C0.477523204,0.0150058122 0.530536129,0.0148965104 0.586133523,0.0147957573 L1.14997079,0.0141074304 C1.21896835,0.0140538481 1.28984816,0.0140074406 1.36237614,0.01396775 L3.04745909,0.0139645442 C3.131592,0.0139964493 3.21573458,0.0140318656 3.29965276,0.0140703349 L4.73538449,0.0149935997 C4.80818319,0.0150522197 4.87935304,0.015111145 4.94865998,0.0151699177 L5.81928638,0.015982812 C5.86411235,0.0160286089 5.90590505,0.0160719633 5.94443039,0.0161124172 L6.248,0.0164444444 L6.306,0.0674444444 L6.306,0.563444444 C6.306,0.700444444 6.219,0.766444444 6.048,0.766444444 L6.048,0.766444444 L5.402,0.793444444 C4.848,0.816444444 4.571,0.982444444 4.571,1.28944444 C4.571,1.43244444 4.629,1.66444444 4.758,1.97744444 C5.998,4.99844444 10.281,14.0294444 10.281,14.0294444 L10.281,14.0294444 L10.438,14.0704444 L13.1983758,8.56281018 C12.8610712,7.81762295 12.646,7.34044444 12.646,7.34044444 L10.748,3.61044444 L10.748,3.61044444 C10.748,3.61044444 10.5848889,3.27888889 10.4391111,2.98437037 L10.2919392,2.68809954 C10.2785139,2.66123611 10.2664167,2.63711111 10.256,2.61644444 C9.422,0.963444444 9.44,0.875444444 8.597,0.764444444 C8.361,0.733444444 8.239,0.703444444 8.239,0.586444444 L8.239,0.0634444444 L8.31,0.0124444444 L8.63792296,0.0120705185 C8.69620444,0.0120124444 8.75617,0.0119564444 8.817625,0.0119024444 L10.2603704,0.011037037 C10.3331407,0.0110074074 10.4060381,0.0109792593 10.478868,0.0109525185 L13.222,0.0104444444 L13.222,0.0104444444 L13.352,0.0534444444 L13.352,0.574444444 C13.352,0.693444444 13.267,0.754444444 13.094,0.754444444 L12.738,0.805444444 C11.838,0.875444444 11.985,1.24344444 12.583,2.43444444 L14.403,6.16 L16.418,2.14344444 C16.7309286,1.46094444 16.6937857,1.25354138 16.5755918,1.091283 L16.547,1.05444444 C16.467,0.958444444 16.199,0.805444444 15.616,0.781444444 L15.616,0.781444444 L15.387,0.756444444 C15.329,0.756444444 15.275,0.736444444 15.222,0.697444444 C15.17,0.660444444 15.144,0.612444444 15.144,0.551444444 L15.144,0.551444444 L15.144,0.0554444444 L15.215,0.00444444444 C15.4608621,0.00272030651 15.7595482,0.0015906989 16.0855345,0.000901863773 Z M24.902,4.74344444 C24.902,4.74344444 27.035001,4.79744444 27.872,4.79744444 L27.9794548,4.79711988 C28.7857045,4.79264692 30.68,4.74344444 30.68,4.74344444 L30.68,4.74344444 L30.707,4.79744444 L30.707,5.39144444 C30.707,5.47244444 30.653,5.52644444 30.545,5.52644444 L30.545,5.52644444 L29.978,5.58044444 C29.141001,5.66144444 28.844,5.87744444 28.844,6.41744444 L28.844,6.41744444 L28.844,15.4084444 C28.844,16.0024444 29.114001,16.3534444 29.978,16.4344444 L29.978,16.4344444 L30.545,16.4884444 C30.626,16.4884444 30.707,16.5424444 30.707,16.6504444 L30.707,16.6504444 L30.707,17.2174444 L30.68,17.2714444 C30.68,17.2714444 28.628,17.2174444 27.791,17.2174444 L27.679866,17.217769 C26.8478976,17.222242 24.929,17.2714444 24.929,17.2714444 L24.929,17.2714444 L24.875,17.2174444 L24.875,16.6504444 C24.875,16.5424444 24.956001,16.4884444 25.064,16.4884444 L25.064,16.4884444 L25.604,16.4344444 C26.495,16.3534444 26.765,15.9214444 26.765,15.4084444 L26.765,15.4084444 L26.765,6.41744444 C26.765,5.82344444 26.441,5.66144444 25.604,5.58044444 L25.604,5.58044444 L25.064,5.52644444 C24.956,5.52644444 24.875,5.49944444 24.875,5.41844444 L24.875,5.41844444 L24.875,4.79744444 Z M36.085016,11.4124444 C36.679015,11.4124444 37.111016,11.5474444 37.516016,12.0874444 L40.513016,15.8134444 C40.891016,16.2454444 40.918016,16.5424444 40.918016,16.8934444 L40.918016,17.2174444 L40.945016,17.2444444 C40.945016,17.2444444 41.917017,17.2174444 42.592016,17.2174444 C43.348015,17.2174444 44.779016,17.2444444 44.779016,17.2444444 L44.860016,17.2174444 L44.860016,16.6504444 C44.860016,16.5694444 44.752016,16.5154444 44.671016,16.4884444 L44.536016,16.4614444 C43.996016,16.3534444 43.348016,16.1914444 43.024016,15.8134444 L38.947016,10.8994444 C38.812016,10.7374444 38.704016,10.6024444 38.704016,10.4404444 C38.704016,10.2244444 38.866016,9.92744444 39.325016,9.44144444 L41.647016,6.76844444 C42.619015,5.66144444 43.348017,5.60744444 44.401016,5.52644444 C44.536016,5.52644444 44.617016,5.47244444 44.617016,5.39144444 L44.617016,4.77044444 L44.536016,4.74344444 C44.536016,4.74344444 43.348015,4.79744444 42.646016,4.79744444 C41.863017,4.79744444 39.676016,4.74344444 39.676016,4.74344444 L39.649016,4.77044444 L39.649016,5.39144444 C39.649016,5.47244444 39.703016,5.49944444 39.811016,5.52644444 C40.351015,5.60744444 40.594016,5.85044444 40.594016,6.06644444 C40.594016,6.57944444 39.757015,7.57844444 38.677016,8.76644444 C37.489017,10.0354444 36.976015,10.4944444 36.085016,10.4944444 L36.085016,6.41744444 C36.085016,5.87744444 36.382017,5.74244444 37.219016,5.58044444 L37.516016,5.52644444 C37.624016,5.49944444 37.678016,5.47244444 37.678016,5.39144444 L37.678016,4.79744444 L37.651016,4.74344444 C37.651016,4.74344444 35.950015,4.79744444 35.194016,4.79744444 C34.357017,4.79744444 32.143016,4.74344444 32.143016,4.74344444 L32.116016,4.79744444 L32.116016,5.41844444 C32.116016,5.49944444 32.197016,5.52644444 32.305016,5.52644444 L32.845016,5.58044444 C33.709015,5.66144444 34.006016,5.82344444 34.006016,6.41744444 L34.006016,15.4084444 C34.006016,15.9214444 33.655015,16.3534444 32.845016,16.4344444 L32.305016,16.4884444 C32.197016,16.4884444 32.116016,16.5424444 32.116016,16.6504444 L32.116016,17.2174444 L32.170016,17.2714444 C32.170016,17.2714444 34.384017,17.2174444 35.140016,17.2174444 C35.950015,17.2174444 37.651016,17.2714444 37.651016,17.2714444 L37.678016,17.2174444 L37.678016,16.6504444 C37.678016,16.5424444 37.597016,16.5154444 37.516016,16.4884444 L37.219016,16.4344444 C36.436017,16.2994444 36.085016,16.0024444 36.085016,15.4084444 L36.085016,11.4124444 M49.917828,6.41744444 C49.917828,5.87744444 50.214829,5.66144444 51.051828,5.58044444 L51.618828,5.52644444 C51.726828,5.52644444 51.780828,5.47244444 51.780828,5.39144444 L51.780828,4.79744444 L51.753828,4.74344444 C51.753828,4.74344444 49.674827,4.79744444 48.945828,4.79744444 C48.108829,4.79744444 45.975828,4.74344444 45.975828,4.74344444 L45.948828,4.79744444 L45.948828,5.41844444 C45.948828,5.49944444 46.029828,5.52644444 46.137828,5.52644444 L46.677828,5.58044444 C47.514827,5.66144444 47.838828,5.82344444 47.838828,6.41744444 L47.838828,15.4084444 C47.838828,15.9214444 47.568827,16.3534444 46.677828,16.4344444 L46.137828,16.4884444 C46.029828,16.4884444 45.948828,16.5424444 45.948828,16.6504444 L45.948828,17.2174444 L46.002828,17.2714444 C46.002828,17.2714444 48.108829,17.2174444 48.864828,17.2174444 C49.701827,17.2174444 51.753828,17.2714444 51.753828,17.2714444 L51.780828,17.2174444 L51.780828,16.6504444 C51.780828,16.5424444 51.699828,16.4884444 51.618828,16.4884444 L51.051828,16.4344444 C50.187829,16.3534444 49.917828,16.0024444 49.917828,15.4084444 L49.917828,6.41744444 M57.104845,6.47144444 C57.104845,5.76944444 57.428846,5.52644444 58.724845,5.52644444 C60.209843,5.52644444 61.262845,6.03944444 61.262845,8.36144444 C61.262845,10.4404444 60.479843,11.4124444 58.859845,11.4124444 C58.319845,11.4124444 57.644844,11.3854444 57.104845,11.1694444 L57.104845,6.47144444 M55.025845,15.5434444 C55.025845,16.0564444 54.755844,16.2994444 53.918845,16.4074444 L53.351845,16.4884444 C53.243845,16.5154444 53.189845,16.5424444 53.189845,16.6504444 L53.189845,17.2174444 L53.216845,17.2714444 C53.216845,17.2714444 55.241845,17.2174444 55.997845,17.2174444 C56.834844,17.2174444 58.994845,17.2714444 58.994845,17.2714444 L59.021845,17.2174444 L59.021845,16.6504444 C59.021845,16.5424444 58.940845,16.5154444 58.832845,16.4884444 L58.292845,16.4074444 C57.428845,16.2724444 57.104845,16.1374444 57.104845,15.5434444 L57.104845,11.9254444 C57.590844,12.1414444 58.130845,12.1954444 58.805845,12.1954444 C62.639841,12.1954444 63.422845,9.65744444 63.422845,8.03744444 C63.422845,6.63344444 62.720841,4.74344444 58.886845,4.74344444 C57.887846,4.74344444 56.807844,4.79744444 56.051845,4.79744444 C55.268845,4.79744444 53.675844,4.74344444 53.270845,4.74344444 L53.216845,4.77044444 L53.216845,5.39144444 C53.216845,5.44544444 53.243845,5.52644444 53.405845,5.52644444 C54.674843,5.60744444 55.025845,5.63444444 55.025845,6.47144444 L55.025845,15.5434444 M72.074609,17.2174444 C72.884608,17.2174444 74.477609,17.2714444 74.477609,17.2714444 L74.531609,17.2174444 L75.071609,14.1124444 L74.396609,14.0314444 C74.072609,15.4354444 73.316608,16.2994444 71.939609,16.2994444 L69.374609,16.2994444 C68.88861,16.2994444 68.591609,15.7864444 68.591609,15.2734444 L68.591609,11.1424444 L70.616609,11.1424444 C71.318608,11.1424444 71.561609,11.4394444 71.669609,11.9794444 L71.804609,12.5734444 C71.804609,12.6544444 71.858609,12.7084444 71.993609,12.7084444 L72.452609,12.7084444 L72.506609,12.6544444 C72.452609,12.0334444 72.344609,11.4664444 72.344609,10.7914444 C72.344609,10.1434444 72.452609,9.38744444 72.506609,8.79344444 C72.506609,8.73944444 72.506609,8.71244444 72.452609,8.71244444 L71.993609,8.71244444 C71.885609,8.71244444 71.831609,8.76644444 71.831609,8.84744444 L71.669609,9.41444444 C71.561609,9.95444444 71.372608,10.2784444 70.616609,10.2784444 L68.591609,10.2784444 L68.591609,6.36344444 C68.591609,5.90444444 68.86161,5.71544444 69.374609,5.71544444 L71.534609,5.71544444 C73.262607,5.71544444 73.775609,7.14644444 74.072609,8.14544444 L74.747609,8.03744444 C74.558609,7.01144444 74.369609,5.95844444 74.342609,4.79744444 L74.288609,4.74344444 C74.288609,4.74344444 72.371608,4.79744444 71.561609,4.79744444 L67.592609,4.79744444 C66.78261,4.79744444 64.676609,4.74344444 64.676609,4.74344444 L64.649609,4.79744444 L64.649609,5.41844444 C64.649609,5.44544444 64.649609,5.49944444 64.811609,5.52644444 L65.432609,5.58044444 C66.188608,5.63444444 66.512609,5.74244444 66.512609,6.36344444 L66.512609,15.2734444 C66.512609,15.8134444 66.269608,16.3534444 65.432609,16.4344444 L64.811609,16.4884444 C64.676609,16.4884444 64.649609,16.5694444 64.649609,16.6234444 L64.649609,17.2174444 L64.676609,17.2714444 C64.676609,17.2714444 66.53961,17.2174444 67.349609,17.2174444 L72.074609,17.2174444 M76.583985,16.6504444 L76.583985,17.2174444 L76.610985,17.2714444 C76.610985,17.2714444 78.662986,17.2174444 79.472985,17.2174444 C80.309984,17.2174444 81.254987,17.2714444 83.414985,17.2714444 C86.411982,17.2714444 89.759985,15.8674444 89.759985,11.1424444 C89.759985,7.55144444 87.54598,4.74344444 83.036985,4.74344444 C82.334986,4.74344444 79.985984,4.79744444 79.472985,4.79744444 C78.986985,4.79744444 76.610985,4.74344444 76.610985,4.74344444 L76.583985,4.79744444 L76.583985,5.39144444 C76.583985,5.47244444 76.664985,5.52644444 76.772985,5.52644444 L77.366985,5.58044444 C78.257984,5.66144444 78.446985,5.66144444 78.446985,6.36344444 L78.446985,15.2734444 C78.446985,16.1104444 78.176984,16.3534444 77.366985,16.4344444 L76.745985,16.4884444 C76.637985,16.4884444 76.583985,16.5694444 76.583985,16.6504444 M80.525985,15.2734444 L80.525985,6.36344444 C80.525985,5.68844444 81.200986,5.52644444 82.253985,5.52644444 C86.78998,5.52644444 87.410985,8.79344444 87.410985,11.6014444 C87.410985,15.3814444 85.736982,16.4884444 82.766985,16.4884444 C80.714987,16.4884444 80.525985,16.0294444 80.525985,15.2734444 M110.357,0.119444444 C110.72,0.119444444 110.851,0.380444444 111.058,0.900444444 L116.388,14.9924444 C116.753,16.0074444 117.273,16.3964444 118.313,16.5004444 L118.599,16.5254444 C118.729,16.5254444 118.859,16.6034444 118.859,16.7344444 L118.859,17.2274444 L118.781,17.2794444 C118.781,17.2794444 116.949302,17.2318679 115.902618,17.2277308 L115.765,17.2274444 C115.4374,17.2274444 114.897386,17.2341836 114.340352,17.2428098 L113.968619,17.2487869 C113.105366,17.2631372 112.306,17.2794444 112.306,17.2794444 L112.281,17.2274444 L112.281,16.7344444 C112.281,16.6034444 112.333,16.5254444 112.465,16.5254444 L113.193,16.4734444 C114.18,16.3964444 114.546,16.0824444 114.285,15.3554444 L112.699,10.9604444 L107.291,10.9604444 C106.667,10.9604444 106.511,11.0644444 106.382,11.4014444 L104.873,15.1724444 C104.613,15.8244444 104.951,16.3974444 105.913,16.4754444 L106.667,16.5284444 C106.771,16.5284444 106.875,16.6064444 106.875,16.7354444 L106.875,17.2294444 L106.823,17.2824444 C106.823,17.2824444 106.056686,17.2681132 105.233286,17.2543553 L104.851784,17.2481004 C104.281198,17.238942 103.735548,17.2311574 103.450165,17.2296921 L103.365,17.2294444 C102.688,17.2294444 101.024,17.2824444 101.024,17.2824444 L100.971,17.2294444 L100.971,16.7354444 C100.971,16.6064444 101.049,16.5284444 101.18,16.5284444 C102.325,16.4504444 102.973,16.2414444 103.701,14.5774444 L109.472,1.05644444 C109.757,0.380444444 109.966,0.119444444 110.357,0.119444444 Z M102.82034,4.74344444 L102.84734,4.79744444 L102.84734,5.39144444 C102.84734,5.44544444 102.84734,5.49944444 102.65834,5.52644444 L102.65834,5.52644444 L102.19934,5.58044444 C101.33534,5.68844444 101.20034,5.85044444 100.79534,6.57944444 L100.79534,6.57944444 L97.82534,11.8174444 L97.82534,15.5704444 C97.82534,16.1644444 98.12234,16.3534444 98.95934,16.4344444 L98.95934,16.4344444 L99.52634,16.4884444 C99.63434,16.4884444 99.71534,16.5694444 99.71534,16.6504444 L99.71534,16.6504444 L99.71534,17.2174444 L99.66134,17.2714444 C99.66134,17.2714444 97.60934,17.2174444 96.77234,17.2174444 L96.6612059,17.217769 C95.8292367,17.222242 93.91034,17.2714444 93.91034,17.2714444 L93.91034,17.2714444 L93.85634,17.2174444 L93.85634,16.6504444 C93.85634,16.5694444 93.93734,16.4884444 94.04534,16.4884444 L94.04534,16.4884444 L94.58534,16.4344444 C95.42234,16.3534444 95.74634,16.1104444 95.74634,15.5704444 L95.74634,15.5704444 L95.74634,11.9254444 L92.34434,6.33644444 C91.99334,5.76944444 91.56134,5.60744444 90.778341,5.52644444 C90.697341,5.52644444 90.562341,5.49944444 90.562341,5.39144444 L90.562341,5.39144444 L90.562341,4.79744444 L90.616341,4.74344444 C90.859341,4.74344444 92.53334,4.79744444 92.83034,4.79744444 C92.96534,4.79744444 95.23334,4.77044444 95.55734,4.74344444 L95.55734,4.74344444 L95.58434,4.77044444 L95.58434,5.39144444 C95.58434,5.44544444 95.53034,5.52644444 95.44934,5.52644444 L95.44934,5.52644444 L94.85534,5.58044444 C94.20734,5.63444444 94.31534,5.87744444 94.58534,6.30944444 L94.58534,6.30944444 L97.31234,10.7644444 L97.36634,10.7644444 L99.87734,6.30944444 C100.22834,5.66144444 100.22834,5.63444444 99.58034,5.58044444 L99.58034,5.58044444 L98.95934,5.52644444 C98.87834,5.52644444 98.85134,5.44544444 98.85134,5.39144444 L98.85134,5.39144444 L98.85134,4.77044444 L98.90534,4.74344444 C99.20234,4.74344444 100.71434,4.79744444 100.98434,4.79744444 C101.17334,4.79744444 102.41534,4.77044444 102.82034,4.74344444 L102.82034,4.74344444 Z M109.761,2.92844444 L109.709,2.92844444 L107.109,9.53244444 C107.005,9.79344444 107.186,9.87044444 107.758,9.87044444 L112.283,9.87044444 L112.283,9.86944444 L109.761,2.92844444 Z" id="ceb-wordmark" fill="#000000" fill-rule="nonzero"></path>
    </g>
</svg>

<svg xmlns="http://www.w3.org/2000/svg" width="119" height="18"><path fill="#000" fill-rule="nonzero" d="m18.165 0 .197.001h.371l.173.001h.311l.137.001.32.001H19.844l.057.053v.496c0 .137-.077.205-.229.205-.746.035-.899.11-1.172.502-.149.215-.443.676-.748 1.193L15.134 7.35l-.073.153 3.199 6.547.194.053 5.04-11.96c.175-.483.148-.825-.077-1.026-.226-.196-.385-.312-.969-.336l-.473-.024a.277.277 0 0 1-.166-.06.172.172 0 0 1-.079-.145V.053l.072-.05h5.694l.058.05v.498c0 .135-.077.203-.229.203-.746.033-1.299.195-1.657.484-.359.291-.639.692-.84 1.213 0 0-4.635 10.61-6.221 14.135-.607 1.156-1.204 1.05-1.729-.033-.43-.885-1.163-2.47-1.899-4.077l-.232-.508c-.266-.58-.528-1.155-.771-1.692l.208.976-.027.264c-.02.064-.159.125-.223.105l-.155.098c-.065-.02-.273-.247-.253-.313l.232-1.205c-1.062 2.19-2.467 5.055-3.174 6.366-.708 1.231-1.291 1.07-1.755.032C7.218 12.8 3.91 6.124 2.353 2.384c-.288-.689-.505-1.13-.71-1.306C1.437.905 1.009.801.358.766.119.74 0 .682 0 .588v-.52L.058.015h.369l.16-.001h.563l.212-.001H3.3l1.435.001h.214l.87.001h.429l.058.051v.496c0 .137-.087.203-.258.203l-.646.027c-.554.023-.831.19-.831.496 0 .143.058.375.187.688 1.24 3.021 5.523 12.052 5.523 12.052l.157.041 2.76-5.507-.552-1.223-1.898-3.73-.309-.626-.147-.296a24 24 0 0 0-.036-.072C9.422.963 9.44.876 8.597.764c-.236-.03-.358-.06-.358-.178V.063l.071-.05h.328l.18-.001L10.26.01H13.222l.13.042v.521c0 .12-.085.18-.258.18l-.356.051c-.9.07-.753.438-.155 1.63l1.82 3.725 2.015-4.017c.313-.682.276-.89.158-1.052l-.029-.037c-.08-.096-.348-.249-.931-.273l-.229-.025a.273.273 0 0 1-.165-.059.17.17 0 0 1-.078-.146V.055l.071-.05.87-.004Zm6.737 4.743s2.133.054 2.97.054h.107c.807-.004 2.701-.054 2.701-.054l.027.054v.594c0 .081-.054.135-.162.135l-.567.054c-.837.081-1.134.297-1.134.837v8.991c0 .594.27.945 1.134 1.026l.567.054c.081 0 .162.054.162.162v.567l-.027.054s-2.052-.054-2.889-.054h-.111c-.832.005-2.751.054-2.751.054l-.054-.054v-.567c0-.108.081-.162.189-.162l.54-.054c.891-.08 1.161-.513 1.161-1.026v-8.99c0-.595-.324-.757-1.161-.838l-.54-.054c-.108 0-.189-.027-.189-.108v-.62Zm11.183 6.67c.594 0 1.026.134 1.431.674l2.997 3.726c.378.432.405.73.405 1.08v.324l.027.027s.972-.027 1.647-.027c.756 0 2.187.027 2.187.027l.081-.027v-.567c0-.08-.108-.135-.189-.162l-.135-.027c-.54-.108-1.188-.27-1.512-.648L38.947 10.9c-.135-.162-.243-.297-.243-.459 0-.216.162-.513.621-.999l2.322-2.673c.972-1.107 1.701-1.16 2.754-1.242.135 0 .216-.054.216-.135v-.62l-.081-.028s-1.188.054-1.89.054c-.783 0-2.97-.054-2.97-.054l-.027.027v.621c0 .081.054.108.162.135.54.081.783.324.783.54 0 .513-.837 1.512-1.917 2.7-1.188 1.27-1.701 1.728-2.592 1.728V6.417c0-.54.297-.675 1.134-.837l.297-.054c.108-.027.162-.054.162-.135v-.594l-.027-.054s-1.701.054-2.457.054c-.837 0-3.051-.054-3.051-.054l-.027.054v.621c0 .081.081.108.189.108l.54.054c.864.081 1.161.243 1.161.837v8.991c0 .513-.351.945-1.161 1.026l-.54.054c-.108 0-.189.054-.189.162v.567l.054.054s2.214-.054 2.97-.054c.81 0 2.511.054 2.511.054l.027-.054v-.567c0-.108-.081-.135-.162-.162l-.297-.054c-.783-.135-1.134-.432-1.134-1.026v-3.996m13.833-4.995c0-.54.297-.756 1.134-.837l.567-.054c.108 0 .162-.054.162-.135v-.594l-.027-.054s-2.08.054-2.808.054c-.837 0-2.97-.054-2.97-.054l-.027.054v.621c0 .081.08.108.189.108l.54.054c.837.081 1.16.243 1.16.837v8.991c0 .513-.27.945-1.16 1.026l-.54.054c-.108 0-.19.054-.19.162v.567l.055.054s2.106-.054 2.862-.054c.837 0 2.889.054 2.889.054l.027-.054v-.567c0-.108-.081-.162-.162-.162l-.567-.054c-.864-.08-1.134-.432-1.134-1.026v-8.99m7.187.053c0-.702.324-.945 1.62-.945 1.485 0 2.538.513 2.538 2.835 0 2.08-.783 3.051-2.403 3.051-.54 0-1.215-.027-1.755-.243V6.471m-2.08 9.072c0 .513-.27.756-1.106.864l-.567.081c-.108.027-.162.054-.162.162v.567l.027.054s2.025-.054 2.78-.054c.838 0 2.998.054 2.998.054l.027-.054v-.567c0-.108-.081-.135-.19-.162l-.54-.08c-.863-.136-1.187-.27-1.187-.865v-3.618c.486.216 1.026.27 1.7.27 3.835 0 4.618-2.538 4.618-4.158 0-1.404-.702-3.294-4.536-3.294-1 0-2.08.054-2.835.054-.783 0-2.376-.054-2.781-.054l-.054.027v.621c0 .054.027.135.189.135 1.269.081 1.62.108 1.62.945v9.072m17.049 1.674c.81 0 2.403.054 2.403.054l.054-.054.54-3.105-.675-.08c-.324 1.403-1.08 2.267-2.457 2.267h-2.565c-.486 0-.783-.513-.783-1.026v-4.13h2.025c.702 0 .945.296 1.053.836l.135.594c0 .081.054.135.189.135h.459l.054-.054c-.054-.62-.162-1.188-.162-1.863 0-.648.108-1.404.162-1.998 0-.054 0-.08-.054-.08h-.46c-.107 0-.161.053-.161.134l-.162.567c-.108.54-.297.864-1.053.864h-2.025V6.363c0-.459.27-.648.783-.648h2.16c1.728 0 2.24 1.431 2.538 2.43l.675-.108c-.19-1.026-.378-2.079-.405-3.24l-.054-.054s-1.917.054-2.727.054h-3.97c-.81 0-2.915-.054-2.915-.054l-.027.054v.621c0 .027 0 .081.162.108l.62.054c.757.054 1.08.162 1.08.783v8.91c0 .54-.242 1.08-1.08 1.161l-.62.054c-.135 0-.162.081-.162.135v.594l.027.054s1.863-.054 2.673-.054h4.725m4.509-.567v.567l.027.054s2.052-.054 2.862-.054c.837 0 1.782.054 3.942.054 2.997 0 6.345-1.404 6.345-6.129 0-3.59-2.214-6.399-6.723-6.399-.702 0-3.051.054-3.564.054-.486 0-2.862-.054-2.862-.054l-.027.054v.594c0 .081.081.135.189.135l.594.054c.891.081 1.08.081 1.08.783v8.91c0 .837-.27 1.08-1.08 1.161l-.621.054c-.108 0-.162.081-.162.162m3.942-1.377v-8.91c0-.675.675-.837 1.728-.837 4.536 0 5.157 3.267 5.157 6.075 0 3.78-1.674 4.887-4.644 4.887-2.052 0-2.241-.459-2.241-1.215M110.357.12c.363 0 .494.261.701.781l5.33 14.092c.365 1.015.885 1.404 1.925 1.508l.286.025c.13 0 .26.078.26.21v.492l-.078.052s-1.832-.047-2.878-.051h-.138c-.328 0-.868.006-1.425.015l-.371.006c-.864.014-1.663.03-1.663.03l-.025-.052v-.493c0-.13.052-.209.184-.209l.728-.052c.987-.077 1.353-.39 1.092-1.118l-1.586-4.395h-5.408c-.624 0-.78.104-.909.441l-1.509 3.771c-.26.652.078 1.225 1.04 1.303l.754.053c.104 0 .208.078.208.207v.494l-.052.053-1.59-.028-.381-.006c-.57-.01-1.116-.017-1.402-.018h-.085c-.677 0-2.341.052-2.341.052l-.053-.053v-.494c0-.129.078-.207.209-.207 1.145-.078 1.793-.287 2.521-1.95l5.771-13.522c.285-.676.494-.937.885-.937Zm-7.537 4.624.027.054v.594c0 .054 0 .108-.189.135l-.459.054c-.864.108-.999.27-1.404 1l-2.97 5.237v3.753c0 .594.297.783 1.134.864l.567.054c.108 0 .19.081.19.162v.567l-.055.054s-2.052-.054-2.889-.054h-.11c-.833.005-2.752.054-2.752.054l-.054-.054v-.567c0-.08.081-.162.19-.162l.54-.054c.836-.08 1.16-.324 1.16-.864v-3.645l-3.402-5.589c-.35-.567-.783-.729-1.566-.81-.08 0-.216-.027-.216-.135v-.594l.054-.054c.243 0 1.917.054 2.214.054.135 0 2.403-.027 2.727-.054l.027.027v.621c0 .054-.054.135-.135.135l-.594.054c-.648.054-.54.297-.27.73l2.727 4.454h.054l2.511-4.455c.351-.648.351-.675-.297-.729l-.62-.054c-.082 0-.109-.08-.109-.135v-.62l.054-.028c.297 0 1.81.054 2.08.054.188 0 1.43-.027 1.835-.054Zm6.941-1.815h-.052l-2.6 6.604c-.104.261.077.338.649.338h4.525l-2.522-6.942Z"/></svg>
